X: 4884
T: Braes Of Mellinish, The
R: jig
M: 6/8
K: Amixolydian
|:ABA ABA|d2c BGB|ABA ABA|g2f e2a|
ABA ABA|d2c BGB|ABA e2e|dBG A3:|
|:e2d cAc|d2c BGB|e2d cAc|eae cAc|
e2d cAc|d2c BGB|ABA e2e|dBG A3:|
|:A2e ece|dcd BGB|A2e ece|fdf ece|
fdf ece|dcd BGB|ABA e2e|dBG A3:|
|:e2a aga|g2g edB|A2a aga|g2a aga|
g2a aga|g2g edB|ABA e2e|dBG A3:|

